!!!OTL: ES WARN EINMAL ZWEI JUNGE KNABN
!!!ARE: Europa, Mitteleuropa, Deutschland, Frankfurt a.M.
!!!SCT: E0065
!!!YEM: Copyright 1995, estate of Helmut Schaffrath.
**kern
*ICvox
*Ivox
*M4/4
*k[f#]
*G:
{4d
=1
4d
4g
4g
4a
=2
4f#
4e
4d
8r}
{8d
=3
4g
4b
4a
4dd
=4
2b
4r}
{4d
=5
4d
4g
4g
4a
=6
4f#
4e
4d
8r}
{8d
=7
4g
4b
4a
4dd
=8
2b
4r}
{8g
8b
=9
4dd
8dd
8dd
8ee
8dd
8cc
8b
=10
4cc
4a
4r}
{8a
8b
=11
4cc
8cc
8cc
8dd
8cc
8b
8a
=12
4b
4g
4r}
{4g
=13
4a
4a
4d
8e
8f#
=14
2g
4r}
==
!!!AGN: erzaehlendes Volks - Lied, Sage, Mord, Hinrichtung, Ballade ?
!!!ONB: ESAC (Essen Associative Code) Database: ERK1
!!!AMT: simple quadruple
!!!AIN: vox
!!!EED: Helmut Schaffrath
!!!EEV: 1.0
*-
